X:686
T: HEILIGER HERR SANCT LORENZ
N: E2103
O: Europa, Mitteleuropa, Deutschland
R: geistlich, Heiligen - Lied, Legende
M: 4/4
L: 1/8
K: F
F2 | F2G2A2B2 | c4c2
c2 | d2c2A2B2 | c3BA2
c2 | B2A2G2B2 | A3GF2
A2 | G2F2G2G2 | F4z2

